images/asteroid.svg

<?xml version="1.0" encoding="UTF-8" standalone="no"?>
<!-- Generator: Adobe Illustrator 16.0.4, SVG Export Plug-In . SVG Version: 6.00 Build 0)  -->
<!DOCTYPE svg  PUBLIC '-//W3C//DTD SVG 1.1//EN'  'http://www.w3.org/Graphics/SVG/1.1/DTD/svg11.dtd'>
<svg id="Layer_1" xmlns="http://www.w3.org/2000/svg" xml:space="preserve" height="493.82px" viewBox="227.439 27.182 499.061 493.824" width="499.06px" version="1.1" y="0px" x="0px" xmlns:xlink="http://www.w3.org/1999/xlink" enable-background="new 227.439 27.182 499.061 493.824">
<path d="m723.88 274.1c0 136.36-110.55 246.9-246.92 246.9-136.34 0-246.9-110.55-246.9-246.9 0-136.37 110.56-246.92 246.9-246.92 136.37 0.002 246.92 110.55 246.92 246.92zm-246.89-224.22c-123.86 0-224.22 100.39-224.22 224.22 0 123.82 100.37 224.2 224.22 224.2 123.8 0 224.19-100.39 224.19-224.2-0.01-123.83-100.39-224.22-224.19-224.22zm-73.3 69.136c-35.672 0-64.602 28.93-64.602 64.574 0 35.672 28.93 64.602 64.602 64.602 35.644 0 64.579-28.93 64.579-64.602 0-35.65-28.94-64.57-64.58-64.57zm134.2 188.87c-16.189 0-29.311 13.115-29.311 29.288s13.127 29.288 29.311 29.288c16.174 0 29.277-13.121 29.277-29.288 0-16.18-13.11-29.29-29.28-29.29zm70.68-147.71c-23.273 0-42.123 18.877-42.123 42.117 0 23.263 18.85 42.124 42.123 42.124 23.24 0 42.123-18.861 42.123-42.124 0.01-23.24-18.88-42.12-42.12-42.12zm-278.27 138.22c-12.6 0-22.803 10.226-22.803 22.809 0 12.589 10.203 22.81 22.803 22.81 12.628 0 22.826-10.221 22.826-22.81-0.01-12.58-10.21-22.81-22.83-22.81zm124.59 80.11c-27.3 0-49.459 22.153-49.459 49.47 0 27.301 22.159 49.46 49.459 49.46 27.328 0 49.458-22.159 49.458-49.46 0-27.32-22.13-49.47-49.46-49.47z" fill="#28537B"/>
</svg>

<?xml version="1.0" encoding="utf-8"?>
<!-- Generator: Adobe Illustrator 16.0.4, SVG Export Plug-In . SVG Version: 6.00 Build 0)  -->
<!DOCTYPE svg PUBLIC "-//W3C//DTD SVG 1.1//EN" "http://www.w3.org/Graphics/SVG/1.1/DTD/svg11.dtd">
<svg version="1.1" id="Layer_1" xmlns="http://www.w3.org/2000/svg" xmlns:xlink="http://www.w3.org/1999/xlink" x="0px" y="0px"
	 width="499.061px" height="493.824px" viewBox="227.439 27.182 499.061 493.824"
	 enable-background="new 227.439 27.182 499.061 493.824" xml:space="preserve">
<path fill="#28537B" d="M723.877,274.102c0,136.36-110.551,246.904-246.916,246.904c-136.344,0-246.899-110.549-246.899-246.904
	c0-136.371,110.555-246.92,246.899-246.92C613.326,27.182,723.877,137.731,723.877,274.102z M476.989,49.884
	c-123.855,0-224.224,100.386-224.224,224.218c0,123.816,100.369,224.202,224.224,224.202c123.804,0,224.191-100.386,224.191-224.202
	C701.174,150.27,600.793,49.884,476.989,49.884z M403.691,119.016c-35.672,0-64.602,28.93-64.602,64.574
	c0,35.672,28.93,64.602,64.602,64.602c35.644,0,64.579-28.93,64.579-64.602C468.27,147.945,439.334,119.016,403.691,119.016z
	 M537.889,307.887c-16.189,0-29.311,13.115-29.311,29.288s13.127,29.288,29.311,29.288c16.174,0,29.277-13.121,29.277-29.288
	C567.166,321.002,554.062,307.887,537.889,307.887z M608.566,160.182c-23.273,0-42.123,18.877-42.123,42.117
	c0,23.263,18.85,42.124,42.123,42.124c23.24,0,42.123-18.861,42.123-42.124C650.695,179.059,631.812,160.182,608.566,160.182z
	 M330.297,298.4c-12.6,0-22.803,10.226-22.803,22.809c0,12.589,10.203,22.81,22.803,22.81c12.628,0,22.826-10.221,22.826-22.81
	C353.123,308.626,342.925,298.4,330.297,298.4z M454.891,378.509c-27.3,0-49.459,22.153-49.459,49.47
	c0,27.301,22.159,49.46,49.459,49.46c27.328,0,49.458-22.159,49.458-49.46C504.35,400.662,482.219,378.509,454.891,378.509z"/>
</svg>
